!!!COM: Robert Schumann
!!!CNT: Deutsch
!!!TXO: Deutsch
!!!OTL: "Kommen und Scheiden"
!!!LYR: Lenau
!!!OPR: Sechs Gedichte von N. Lenau und Requiem
!!!OPS: Op. 90
!!!ONM: No. 3
!!!ENC: Leigh VanHandel
!!!YOR: Schumann Lieder - Max Friedlaender, ed.,
!!!YOR: New York: C. F. Peters, Vol. 3
!!!ODT: 1850/
**kern	**silbe
*staff1	*
*clefG2	*
*k[b-e-a-d-g-c-]	*
*M6/8	*
*MM[Mit inniger Empfindung]	*
=1	=1
2.r	.
=2	=2
2.r	.
=3	=3
8r	.
8r	.
{8b-	{So
4cc-	oft
8dd-	sie
=4	=4
4.b-}	kam,}
8r	.
8r	.
{8cc-	{er-
=5	=5
4b-	-schien
[8a-	mir-
8a-]	|
8b-	-die
8cc-	Ge-
=6	=6
4b-}	-stalt}
8r	.
8r	.
8r	.
{8b-	{so
=7	=7
4ee-	lieb-
8b-	-lich
8r	.
8ccn	wie
8dd-	das
=8	=8
4dd-	er-
8ccn	-ste
ccq	Gru2n
4b-	|
8a-	im
=9	=9
8dd-}	Wald.}
8r	.
8r	.
4r	.
8r	.
=10	=10
8r	.
8r	.
{8b-	{Und
4cc-	was
8dd-	sie
=11	=11
4b-}	sprach,}
8r	.
4r	.
8r	.
=12	=12
8r	.
8r	.
{[8b-	{drang
8b-]	|
8cc-	mir
8f	zum
=13	=13
4a-	Her-
8g-	-zen
4g-}	ein}
8r	.
=14	=14
4r	.
8r	.
{8b-	{su2ss
8ccn	wie
8dd-	des
=15	=15
8dd-	Fru2h-
8e-	|
8f	-lings
g-q	er-
4b-	|
8a-	-stes
=16	=16
4f}	Lied.}
8r	.
8r	.
8r	.
{8cc-	{Und
=17	=17
4.cc-	als
4.dd-	Leb-
=18	=18
4.b-}	-wohl}
8r	.
8r	.
{8b-	{sie
=19	=19
4cc-	wink-
8cc-	-te
4dd-	mit
8ee--	der
=20	=20
4dd-}	Hand,}
8r	.
4r	.
8r	.
=21	=21
{4.gg-	{war's,
4ee--	ob
8dd-	der
=22	=22
4.cc-	letz-
4.g-	-te
=23	=23
4b--	Ju-
8a-	-gend-
4a-	-traum
8a-	mir
=24	=24
4.a-}	schwand.}
4r	.
8r	.
==	==
*-	*-